X:1056
T:Sailor's Journale.
M:3/4
L:1/8
Q:1/4=104
Z:Jack Campin * www.campin.me.uk * 2009
K:D
a````fd   |   d2 {ed}cd`BG   |{G}F>G     .A.B.c.d|ef  {a}g2f2|fe z
a````fd   |   d2 {ed}cd`BG   |   FG```````A`d`f`a|g>f {a}g3 e|fd z
d/e/ fe/d/|   e>c    Af`ec   |   A3         B`A`F|D>E````FAdf|fe z
a````ga   |{a}g2     f2 ef/d/|   d2 ({ed})c`d`B`G|FA     g3 a|fdz|]
<end>
<start>
